icons/delete-back.svg

<svg width="24" height="24" viewBox="0 0 24 24" fill="none" xmlns="http://www.w3.org/2000/svg">
<path fill-rule="evenodd" clip-rule="evenodd" d="M5.67596 3.43347C5.86251 3.16212 6.1707 3 6.5 3H21C21.5523 3 22 3.44772 22 4V20C22 20.5523 21.5523 21 21 21H6.5C6.1707 21 5.86251 20.8379 5.67596 20.5665L0.175958 12.5665C-0.0586527 12.2253 -0.0586527 11.7747 0.175958 11.4335L5.67596 3.43347ZM7.02603 5L2.21353 12L7.02603 19H20V5H7.02603ZM9.29289 8.29289C9.68342 7.90237 10.3166 7.90237 10.7071 8.29289L13 10.5858L15.2929 8.29289C15.6834 7.90237 16.3166 7.90237 16.7071 8.29289C17.0976 8.68342 17.0976 9.31658 16.7071 9.70711L14.4142 12L16.7071 14.2929C17.0976 14.6834 17.0976 15.3166 16.7071 15.7071C16.3166 16.0976 15.6834 16.0976 15.2929 15.7071L13 13.4142L10.7071 15.7071C10.3166 16.0976 9.68342 16.0976 9.29289 15.7071C8.90237 15.3166 8.90237 14.6834 9.29289 14.2929L11.5858 12L9.29289 9.70711C8.90237 9.31658 8.90237 8.68342 9.29289 8.29289Z" fill="black"/>
</svg>

<svg
  width="24"
  height="24"
  viewBox="0 0 24 24"
  xmlns="http://www.w3.org/2000/svg"
>
  <path
    fill-rule="evenodd"
    clip-rule="evenodd"
    d="M5.676 3.433A1 1 0 0 1 6.5 3H21a1 1 0 0 1 1 1v16a1 1 0 0 1-1 1H6.5a1 1 0 0 1-.824-.433l-5.5-8a1 1 0 0 1 0-1.133l5.5-8zM7.026 5l-4.812 7 4.812 7H20V5H7.026zm2.267 3.293a1 1 0 0 1 1.414 0L13 10.586l2.293-2.293a1 1 0 1 1 1.414 1.414L14.414 12l2.293 2.293a1 1 0 0 1-1.414 1.414L13 13.414l-2.293 2.293a1 1 0 0 1-1.414-1.414L11.586 12 9.293 9.707a1 1 0 0 1 0-1.414z"
  />
</svg>
